src/resources/assets/delete.svg

<svg xmlns="http://www.w3.org/2000/svg" width="16" height="16"><g fill="#ddd"><path d="M 6.5 7 L 6.5 11 C 6.5 11.277344 6.722656 11.5 7 11.5 C 7.277344 11.5 7.5 11.277344 7.5 11 L 7.5 7 C 7.5 6.722656 7.277344 6.5 7 6.5 C 6.722656 6.5 6.5 6.722656 6.5 7 Z M 9 6.5 C 9.277344 6.5 9.5 6.722656 9.5 7 L 9.5 11 C 9.5 11.277344 9.277344 11.5 9 11.5 C 8.722656 11.5 8.5 11.277344 8.5 11 L 8.5 7 C 8.5 6.722656 8.722656 6.5 9 6.5 Z M 9 6.5"/><path d="M 10 4 L 13 4 C 13.277344 4 13.5 4.222656 13.5 4.5 C 13.5 4.777344 13.277344 5 13 5 L 12.449219 5 L 11.695312 11.777344 C 11.554688 13.042969 10.484375 14 9.210938 14 L 6.789062 14 C 5.515625 14 4.445312 13.042969 4.304688 11.777344 L 3.550781 5 L 3 5 C 2.722656 5 2.5 4.777344 2.5 4.5 C 2.5 4.222656 2.722656 4 3 4 L 6 4 C 6 2.894531 6.894531 2 8 2 C 9.105469 2 10 2.894531 10 4 Z M 8 3 C 7.449219 3 7 3.449219 7 4 L 9 4 C 9 3.449219 8.550781 3 8 3 Z M 4.558594 5 L 5.300781 11.664062 C 5.382812 12.425781 6.027344 13 6.789062 13 L 9.210938 13 C 9.972656 13 10.617188 12.425781 10.699219 11.664062 L 11.441406 5 Z M 4.558594 5"/></g></svg>

<svg xmlns="http://www.w3.org/2000/svg" width="16" height="16"><g fill="#ddd"><path d="M6.5 7v4c0 .277.223.5.5.5s.5-.223.5-.5V7c0-.277-.223-.5-.5-.5s-.5.223-.5.5zM9 6.5c.277 0 .5.223.5.5v4c0 .277-.223.5-.5.5a.498.498 0 01-.5-.5V7c0-.277.223-.5.5-.5zm0 0"/><path d="M10 4h3c.277 0 .5.223.5.5s-.223.5-.5.5h-.55l-.755 6.777A2.5 2.5 0 019.211 14H6.789a2.5 2.5 0 01-2.484-2.223L3.55 5H3a.498.498 0 01-.5-.5c0-.277.223-.5.5-.5h3a1.999 1.999 0 114 0zM8 3c-.55 0-1 .45-1 1h2c0-.55-.45-1-1-1zM4.559 5l.742 6.664A1.497 1.497 0 006.789 13h2.422c.762 0 1.406-.574 1.488-1.336L11.441 5zm0 0"/></g></svg>
